assets/icons/bowtie/edit-copy.svg

<svg xmlns="http://www.w3.org/2000/svg" viewBox="0 0 448 448" enable-background="new 0 0 448 448"><path d="M326.625 96h-32.547l-95.609-96h-166.469v352h128v96h288v-230.625l-121.375-121.375zm-6.625 38.625l89.375 89.375h-89.375v-89.375zm-160 185.375h-96v-288h121.531l64.391 64h-89.922v224zm256 96h-224v-288h96v128h128v160z"/></svg>

<?xml version="1.0" encoding="utf-8"?>
<!-- Generator: Adobe Illustrator 19.1.0, SVG Export Plug-In . SVG Version: 6.00 Build 0)  -->
<svg version="1.1" xmlns="http://www.w3.org/2000/svg" xmlns:xlink="http://www.w3.org/1999/xlink" x="0px" y="0px"
	 viewBox="0 0 448 448" style="enable-background:new 0 0 448 448;" xml:space="preserve">
<path d="M326.625,96h-32.547L198.469,0H32v352h128v96h288V217.375L326.625,96z M320,134.625L409.375,224H320V134.625z M160,320H64
	V32h121.531l64.391,64H160V320z M416,416H192V128h96v128h128V416z"/>
<g>
</g>
<g>
</g>
<g>
</g>
<g>
</g>
<g>
</g>
<g>
</g>
</svg>
